!!!SOCIAL_FUNCTION:	cheyenne war song
!!!PDT:	1936
!!!OTL: No_9_Old_War_Song.krn
!!!REG: Oklahoma and Montana
!!!LANG: Tone
!!!LING_GROUP: Algonquin
**kern
*staff1
=1-
*clefG2
*k[b-]
*M3/4
16cc\LK
8.cc\J
16dd\LK
8.cc\J
16cc/LK
8.a/J
=2
16a/LK
8a/
16a/Jk
16a/LK
8.g/J
16g/LK
8.f/J
=3
16g/LK
8.g/J
8.g/L
16g/Jk
8g/
8r
=4
16a/LK
8.a/J
16a/LK
8.g/J
16g/LK
8.f/J
=5
16f/LK
8.g/J
8.g/L
16g/Jk
12a/L
12g/
12f/J
=6
4.f/
8r
4c/
=7
*M2/4
16a/LK
8.a/J
16a/LK
8.g/J
=8
16g/LK
8f/
16c/Jk
4f/
=9
*M3/4
8c/L
[8c/J
4c/]
4r
=10
*M2/4
8c/L
[8c/J
8c/L]
8c/J
=11
*M3/4
4c/
8.c/L
16c/Jk
8c/
8r
=12
8f/L
8g/J
8.g/L
16g/Jk
8g/
8r
=13
*M2/4
4a/
16a/LK
8.g/J
=14
16g/LK
8.f/J
16f/LK
8.g/J
=15
*M3/4
4g/
8.g/L
16g/Jk
12a/L
12g/
12f/J
=16
4f/
8f/
8r
4c/
=17
*M2/4
8a/L
8a/J
16a/LK
8.g/J
=18
16g/LK
8f/
16c/Jk
4f/
=19
*M3/4
8c/L
[8c/J
4c/]
4r
=20
*M2/4
8c/L
[8c/J
8c/L]
8c/J
=21
4c/
8.c/L
16c/Jk
=22
4c/
4r
==
*-
